!!!OTL: Gestern abend bin ich ausgegang (3-64), S. 184
!!!id: P1037
**kern
*clefG2
*k[f#]
*D:
{8d
8e
=1
4f#
4a
8f#
8f#
=2
4e
4d
4e
=3
2d}
=4
{8f#
8g
=5
4.a
8b
4a
=6
4g
4e
4a
=7
2f#}
=8
{4a
=9
4f#
4a
4a
=10
4.b
8g
4g}
=11
{8b
8b
4dd
4b
=12
4.a
8b
4a}
=13
{4g
4f#
4f#
=14
8f#
8a
4.a
8g
=15
2.g
=16
2f#}
==
*-
!!!minrhy: 8
!!!meters: 3/4 ]  ZZ[5
!!!cut: Gestern abend bin ich ausgegang (3-64), S. 184
!!!reg: Lothringen
!!!trd: PINCK, Louis: Verklingende Weisen, Bd3, Metz 1933
!!!rhy1: XX  X_X_XX  X_X_X_  X__
!!!rhy2: XX  X_.XX_  X_X_X_  X__
!!!key: P1037  08  D 3/4 ]  ZZ[5
!!!mod: SECHSTONSKALA DUR ?]  AMBITUS[8
!!!kad: 13453
!!!akz: 321_543_36_65_4343_
!!!fot: 'a__as"b__c__d__
!!!for: 'a__b__c__d__e__
!!!fok: '^__^__Sd_^d_\__
!! PHRAS[GEMISCHTTAKTIG]
!!!fkt: Liebe, Standesunterschied
!! LOTH VKL
!! PR[9] 2K[9] 2G[20] 3K[4] 3G[4] 4A[2] 4Ü[0] 5A[2] 6K[0] 6G[0]
!! 7K[0] 7G[0] 8A[0] MEHR[0] SI[41] ABS[46] SR[28] SP[13]
!! ST[12] 2k[13] 2g[35] 3k[0] 3g[0] 4d[2] 4ü[0] 5d[0] 6k[0] 6g[0]
!! 7k[0] 7g[0] 8d[0] mehr[0] si[50] dm[-9] sr[48] sp[2]
!! 1F[2] 2F[45] 3F[39] 4F[10] LF[0] 2P[2] 3P[2] 4P[0] TRI[0] DF[6] AB[51]
!! TF[0] U3K[0] U3[0] U4[0] U4Ü[0] U5[2] U6K[0] U6[0] U7K[0] U7[2]
!! N1[11] N2K[0] N2[21] N3K[0] N3[19] N4[23] N4Ü[0] N5[15] N6K[0] N6[6]
!!!n7k: 0] N7[0] O1[0] O2K[0] O2[0] O3K[0] O3[0] HÖ[0
